!!!SOCIAL_FUNCTION:	dream songs
!!!PDT:	1932
!!!OTL: No_48_Dream_Song_Concerning_the_Sun_(b).krn
!!!REG: Wisconsin
!!!LANG: Non-Tone
!!!LING_GROUP: Algonquin
**kern
*staff1
=1-
*clefF4
*k[b-e-]
*M2/4
8c\L
16d\L
16d\JJ
4c\
=2
8B-\L
8B-\J
8G\
8r
=3
8B-\L
16c\L
16c\JJ
4B-\
=4||
*M3/4
8G\L
8G\J
4G\
8A\L
8G\J
=5||
*M2/4
8F\L
8F\J
[4F\
=6
4F\]
8F\
8r
=7
8B-\L
16c\L
16c\JJ
4B-\
=8
8F\L
8F\J
8D\
8r
=9
8F\L
16G\L
16G\JJ
4G\
=10||
*M3/4
8F\L
8F\J
4F\
8G\L
8F\J
=11
8D\L
8D\J
4BB-/
4r
=12||
*M2/4
8C/L
16C/L
16C/JJ
4C/
=13
8BB-/L
8BB-/J
8FF/
8r
=14
8BB-/L
16C/L
16C/JJ
4BB-/
=15
8BB-/L
8GG/J
[4FF/
=16
2FF/]
==
*-
